mcdonalds.svg

<svg viewBox="0 0 24 24" xmlns="http://www.w3.org/2000/svg"><path d="M17.2442 3.00551C19.31 3.00551 20.9856 11.7207 20.9856 22.4839L24 22.4839C24 10.8962 20.959 1.51609 17.2353 1.51609C15.1075 1.51609 13.2279 4.32658 11.9867 8.74178C10.7454 4.32658 8.86587 1.51609 6.75582 1.51609C3.03218 1.51609 0 10.8874 0 22.4751L3.0144 22.4751C3.0144 11.7119 4.67236 3.0056 6.73804 3.0056C8.80382 3.0056 10.4795 11.0558 10.4795 20.9857L13.4762 20.9857C13.4762 11.0559 15.1607 3.0056 17.2265 3.0056" fill="#ffcc00"/></svg>

<svg viewBox="0 0 24 24" xmlns="http://www.w3.org/2000/svg"><path d="M17.244 3.006c2.066 0 3.742 8.715 3.742 19.478H24c0-11.588-3.041-20.968-6.765-20.968-2.127 0-4.007 2.81-5.248 7.226-1.242-4.415-3.121-7.226-5.231-7.226C3.032 1.516 0 10.887 0 22.476h3.014c0-10.764 1.658-19.47 3.724-19.47 2.066 0 3.741 8.05 3.741 17.98h2.997c0-9.93 1.685-17.98 3.75-17.98" fill="#fc0"/></svg>
